X: 19913
T: Jig In The Castle
R: jig
M: 6/8
K: Adorian
|:~A3 ~e3|dBA BdB|~A3 ~e3|dBA GAB|
~A3 ~e3|dBA Bde|a2g eBe|1 g2f edB:|2 g2f eBe||
|:~a3 bag|eag eBe|~a3 bag|eag eBe|
~a3 bag|eag eBe|g2a geg|1 age de/f/g:|2 age dBG||

